rospo-light/16x16/places/folder-music-symbolic.svg

<svg height="22" width="22" xmlns="http://www.w3.org/2000/svg"><path d="m7.5714286 3v1.1428571 8.2171429c-.3657143-.137143-.7314286-.217143-1.1428572-.217143-1.8971428 0-3.4285714 1.531429-3.4285714 3.428572 0 1.897142 1.5314286 3.428571 3.4285714 3.428571 1.8971429 0 3.4285715-1.531429 3.4285715-3.428571v-8.0000004h6.8571431v4.7885714c-.365715-.137143-.731429-.217143-1.142857-.217143-1.897143 0-3.428572 1.531429-3.428572 3.428572 0 1.897142 1.531429 3.428571 3.428572 3.428571 1.897142 0 3.428571-1.531429 3.428571-3.428571v-12.571429s0 0-1.142857 0z" fill="#5c616c" stroke-width="1.142857"/></svg>

<?xml version="1.0" encoding="UTF-8" standalone="no"?>
<svg
   xmlns:dc="http://purl.org/dc/elements/1.1/"
   xmlns:cc="http://creativecommons.org/ns#"
   xmlns:rdf="http://www.w3.org/1999/02/22-rdf-syntax-ns#"
   xmlns:svg="http://www.w3.org/2000/svg"
   xmlns="http://www.w3.org/2000/svg"
   xmlns:sodipodi="http://sodipodi.sourceforge.net/DTD/sodipodi-0.dtd"
   xmlns:inkscape="http://www.inkscape.org/namespaces/inkscape"
   width="22"
   height="22"
   version="1.1"
   id="svg4"
   sodipodi:docname="folder-music-symbolic.svg"
   inkscape:version="0.92.1 r">
  <metadata
     id="metadata10">
    <rdf:RDF>
      <cc:Work
         rdf:about="">
        <dc:format>image/svg+xml</dc:format>
        <dc:type
           rdf:resource="http://purl.org/dc/dcmitype/StillImage" />
      </cc:Work>
    </rdf:RDF>
  </metadata>
  <defs
     id="defs8" />
  <sodipodi:namedview
     pagecolor="#ffffff"
     bordercolor="#666666"
     borderopacity="1"
     objecttolerance="10"
     gridtolerance="10"
     guidetolerance="10"
     inkscape:pageopacity="0"
     inkscape:pageshadow="2"
     inkscape:window-width="769"
     inkscape:window-height="480"
     id="namedview6"
     showgrid="false"
     inkscape:zoom="10.727273"
     inkscape:cx="11"
     inkscape:cy="11"
     inkscape:window-x="0"
     inkscape:window-y="0"
     inkscape:window-maximized="0"
     inkscape:current-layer="svg4" />
  <path
     style="fill:#5c616c;stroke-width:1.14285719"
     d="m 7.5714286,3 c 0,0 0,0 0,1.1428571 V 12.36 C 7.2057143,12.222857 6.84,12.142857 6.4285714,12.142857 4.5314286,12.142857 3,13.674286 3,15.571429 3,17.468571 4.5314286,19 6.4285714,19 8.3257143,19 9.8571429,17.468571 9.8571429,15.571429 V 7.5714286 H 16.714286 V 12.36 c -0.365715,-0.137143 -0.731429,-0.217143 -1.142857,-0.217143 -1.897143,0 -3.428572,1.531429 -3.428572,3.428572 C 12.142857,17.468571 13.674286,19 15.571429,19 17.468571,19 19,17.468571 19,15.571429 V 3 c 0,0 0,0 -1.142857,0 z"
     id="path2"
     inkscape:connector-curvature="0" />
</svg>
